apps/site/public/icons/companies/digitalspeed_light.svg

<?xml version="1.0" encoding="utf-8"?>
<svg xmlns="http://www.w3.org/2000/svg" width="151" height="30" viewBox="0 0 151 30" fill="none">
<path d="M54.2315 20.1679V23.3498H49.9735C49.2754 23.35 48.5839 23.213 47.9387 22.9465C47.2936 22.68 46.7073 22.2893 46.2135 21.7968C45.7197 21.3042 45.3279 20.7194 45.0607 20.0757C44.7934 19.432 44.6559 18.7421 44.6559 18.0452V3.18379H47.8447V6.36573H52.6278V9.54762H44.7334L47.8521 12.752V18.0416C47.8514 18.3202 47.9057 18.5963 48.0119 18.854C48.1182 19.1117 48.2742 19.3459 48.4713 19.5434C48.6683 19.7409 48.9024 19.8976 49.1601 20.0048C49.4179 20.1119 49.6943 20.1673 49.9735 20.1679H54.2315Z" fill="#1E1C1F" style="fill:#1E1C1F;fill:color(display-p3 0.1176 0.1098 0.1216);fill-opacity:1;"/>
<path d="M30.8412 6.36928H28.7123C27.3019 6.36928 25.9494 6.92834 24.9521 7.92348C23.9548 8.9186 23.3946 10.2683 23.3946 11.6756V18.0395C23.3946 18.7362 23.5321 19.4262 23.7993 20.0699C24.0666 20.7136 24.4584 21.2984 24.9522 21.791C25.446 22.2835 26.0322 22.6743 26.6774 22.9407C27.3226 23.2072 28.014 23.3442 28.7123 23.344H32.9646V24.4071C32.9655 24.6862 32.9113 24.9627 32.8051 25.2208C32.699 25.479 32.5427 25.7136 32.3456 25.9114C32.1483 26.1093 31.914 26.2664 31.6558 26.3738C31.3977 26.4811 31.1209 26.5366 30.8412 26.5371H24.4637V29.7191H30.8412C31.5395 29.7191 32.2309 29.5817 32.8759 29.3151C33.521 29.0484 34.1071 28.6575 34.6007 28.1647C35.0944 27.672 35.4859 27.087 35.753 26.4432C36.0199 25.7994 36.1573 25.1095 36.1571 24.4127V11.6756C36.1573 10.9789 36.0199 10.2889 35.753 9.64513C35.4859 9.00133 35.0944 8.41634 34.6007 7.92358C34.1071 7.43082 33.521 7.03993 32.8759 6.77324C32.2309 6.50654 31.5395 6.36928 30.8412 6.36928ZM32.9664 20.1677H28.7123C28.1485 20.1677 27.6077 19.9443 27.2089 19.5466C26.81 19.149 26.5856 18.6096 26.5851 18.047V11.6831C26.5851 11.1202 26.8093 10.5803 27.2082 10.1823C27.6071 9.78421 28.1481 9.56055 28.7123 9.56055H30.8412C31.405 9.56103 31.9456 9.78489 32.3441 10.1829C32.7426 10.5809 32.9664 11.1205 32.9664 11.6831V20.1677Z" fill="#1E1C1F" style="fill:#1E1C1F;fill:color(display-p3 0.1176 0.1098 0.1216);fill-opacity:1;"/>
<path d="M79.2204 9.02518C79.2204 9.72907 79.5007 10.4042 79.9994 10.902C80.4983 11.3996 81.1748 11.6793 81.8802 11.6793H85.069C86.6201 11.6793 88.1077 12.2942 89.2045 13.3886C90.3014 14.4831 90.9175 15.9675 90.9175 17.5153C90.9175 19.0633 90.3014 20.5479 89.2047 21.6427C88.1079 22.7375 86.6203 23.3528 85.069 23.3533H77.0952V20.1713H85.0708C85.776 20.1708 86.452 19.891 86.9504 19.3933C87.4489 18.8956 87.7287 18.2208 87.7287 17.5172C87.7287 16.8138 87.4488 16.1392 86.9503 15.6418C86.4519 15.1444 85.7758 14.865 85.0708 14.865H81.8821C80.3304 14.865 78.8423 14.2499 77.7452 13.1551C76.6481 12.0603 76.0317 10.5754 76.0317 9.02706C76.0317 8.2605 76.183 7.50146 76.4771 6.79327C76.7711 6.08509 77.202 5.44164 77.7453 4.89969C78.2886 4.35774 78.9336 3.9279 79.6433 3.63472C80.3532 3.34154 81.1139 3.19077 81.8821 3.19103H89.8559V6.37295H81.8802C81.1751 6.37295 80.4989 6.65232 80.0001 7.14966C79.5014 7.647 79.2209 8.3216 79.2204 9.02518Z" fill="#1E1C1F" style="fill:#1E1C1F;fill:color(display-p3 0.1176 0.1098 0.1216);fill-opacity:1;"/>
<path d="M73.9058 3.18555H70.7151V23.3515H73.9058V3.18555Z" fill="#1E1C1F" style="fill:#1E1C1F;fill:color(display-p3 0.1176 0.1098 0.1216);fill-opacity:1;"/>
<path d="M62.7385 6.36928H56.3498V9.55119H62.7273C63.0077 9.54975 63.2856 9.60357 63.5452 9.70975C63.8046 9.81585 64.0405 9.97209 64.2393 10.1695C64.438 10.367 64.5957 10.6017 64.7031 10.8602C64.8106 11.1187 64.8658 11.3958 64.8656 11.6756V12.7388H60.6114C59.201 12.7388 57.8485 13.2978 56.8512 14.2929C55.8539 15.2881 55.2937 16.6378 55.2937 18.0452C55.2937 18.7419 55.4312 19.4318 55.6986 20.0755C55.9658 20.7192 56.3575 21.304 56.8513 21.7966C57.3451 22.2891 57.9314 22.6798 58.5766 22.9463C59.2217 23.2128 59.9131 23.3498 60.6114 23.3496H62.7366C63.4348 23.3498 64.1263 23.2128 64.7715 22.9463C65.4166 22.6798 66.0028 22.2891 66.4967 21.7966C66.9906 21.304 67.3822 20.7192 67.6495 20.0755C67.9167 19.4318 68.0544 18.7419 68.0544 18.0452V11.6812C68.0553 10.984 67.9186 10.2935 67.6519 9.64899C67.3851 9.00457 66.9937 8.41893 66.5 7.92557C66.0063 7.43221 65.4199 7.04081 64.7745 6.77377C64.129 6.50673 63.4372 6.36928 62.7385 6.36928ZM64.8656 18.047C64.865 18.6096 64.6408 19.149 64.2419 19.5466C63.8431 19.9443 63.3023 20.1677 62.7385 20.1677H60.6114C60.0476 20.1677 59.5069 19.9443 59.108 19.5466C58.7092 19.149 58.4848 18.6096 58.4843 18.047C58.4848 17.4844 58.7092 16.945 59.108 16.5473C59.5069 16.1497 60.0476 15.9263 60.6114 15.9263H64.8656V18.047Z" fill="#1E1C1F" style="fill:#1E1C1F;fill:color(display-p3 0.1176 0.1098 0.1216);fill-opacity:1;"/>
<path d="M115.91 16.982C117.321 16.982 118.673 16.4229 119.671 15.4278C120.668 14.4326 121.228 13.0829 121.228 11.6756C121.228 10.2683 120.668 8.9186 119.671 7.92348C118.673 6.92834 117.321 6.36928 115.91 6.36928H113.781C113.083 6.36928 112.392 6.50654 111.746 6.77324C111.101 7.03993 110.516 7.43082 110.022 7.92358C109.528 8.41634 109.137 9.00133 108.869 9.64513C108.602 10.2889 108.465 10.9789 108.465 11.6756V18.0395C108.465 19.4463 109.026 20.7956 110.023 21.7903C111.019 22.7851 112.371 23.344 113.781 23.344H120.159V20.162H113.781C113.502 20.1623 113.225 20.1075 112.967 20.0009C112.709 19.8943 112.475 19.738 112.277 19.5409C112.079 19.3437 111.923 19.1096 111.816 18.852C111.709 18.5944 111.654 18.3183 111.655 18.0395V16.9763L115.91 16.982ZM111.656 11.6756C111.656 11.1127 111.88 10.5728 112.279 10.1747C112.678 9.77669 113.219 9.55312 113.783 9.55312H115.91C116.19 9.55312 116.467 9.608 116.724 9.71467C116.983 9.82134 117.217 9.97769 117.415 10.1747C117.612 10.3719 117.769 10.6058 117.876 10.8634C117.983 11.1209 118.038 11.3969 118.038 11.6756C118.038 11.9544 117.983 12.2303 117.876 12.4878C117.769 12.7454 117.612 12.9794 117.415 13.1765C117.217 13.3736 116.983 13.53 116.724 13.6366C116.467 13.7433 116.19 13.7982 115.91 13.7982H111.656V11.6756Z" fill="#1E1C1F" style="fill:#1E1C1F;fill:color(display-p3 0.1176 0.1098 0.1216);fill-opacity:1;"/>
<path d="M130.797 16.982C132.208 16.982 133.56 16.4229 134.557 15.4278C135.555 14.4326 136.115 13.0829 136.115 11.6756C136.115 10.2685 135.554 8.91905 134.557 7.92402C133.56 6.92899 132.208 6.36977 130.797 6.36928H128.668C127.97 6.36928 127.279 6.50654 126.633 6.77324C125.989 7.03993 125.403 7.43082 124.909 7.92358C124.415 8.41634 124.023 9.00133 123.756 9.64513C123.49 10.2889 123.352 10.9789 123.352 11.6756V18.0395C123.352 19.4463 123.913 20.7956 124.91 21.7903C125.906 22.7851 127.258 23.344 128.668 23.344H135.045V20.162H128.668C128.389 20.1623 128.112 20.1075 127.854 20.0009C127.596 19.8943 127.361 19.738 127.164 19.5409C126.966 19.3437 126.81 19.1096 126.703 18.852C126.596 18.5944 126.541 18.3183 126.542 18.0395V16.9763L130.797 16.982ZM126.544 11.6756C126.544 11.1127 126.767 10.5728 127.167 10.1747C127.565 9.77669 128.106 9.55312 128.67 9.55312H130.797C131.077 9.55312 131.353 9.608 131.611 9.71467C131.869 9.82134 132.104 9.97769 132.302 10.1747C132.499 10.3719 132.655 10.6058 132.763 10.8634C132.87 11.1209 132.925 11.3969 132.925 11.6756C132.925 11.9544 132.87 12.2303 132.763 12.4878C132.655 12.7454 132.499 12.9794 132.302 13.1765C132.104 13.3736 131.869 13.53 131.611 13.6366C131.353 13.7433 131.077 13.7982 130.797 13.7982H126.544V11.6756Z" fill="#1E1C1F" style="fill:#1E1C1F;fill:color(display-p3 0.1176 0.1098 0.1216);fill-opacity:1;"/>
<path d="M8.50835 3.18555H0V23.3515H8.50835C10.1998 23.3515 11.8219 22.6811 13.018 21.4875C14.2139 20.2941 14.8859 18.6754 14.8859 16.9877V9.5532C14.8864 8.71712 14.7217 7.88919 14.4015 7.11666C14.0812 6.34412 13.6115 5.64214 13.0192 5.0508C12.427 4.45947 11.7237 3.99036 10.9497 3.67032C10.1758 3.35027 9.34621 3.18555 8.50835 3.18555ZM11.6971 16.9857C11.6971 17.8297 11.3612 18.6391 10.7631 19.2358C10.1651 19.8325 9.35402 20.1678 8.50835 20.1678H3.19064V9.51325L0 6.36934H1.99578H8.50835C9.35402 6.36934 10.1651 6.70459 10.7631 7.30132C11.3612 7.89804 11.6971 8.70738 11.6971 9.55127V16.9857Z" fill="#1E1C1F" style="fill:#1E1C1F;fill:color(display-p3 0.1176 0.1098 0.1216);fill-opacity:1;"/>
<path d="M147.81 -0.000137329V6.36373H143.555C142.857 6.36373 142.165 6.50099 141.52 6.76768C140.876 7.03438 140.289 7.42527 139.796 7.91803C139.302 8.41079 138.91 8.99578 138.643 9.63952C138.377 10.2833 138.239 10.9733 138.239 11.67V18.0339C138.239 18.7307 138.377 19.4207 138.643 20.0645C138.91 20.7082 139.302 21.2932 139.796 21.7859C140.289 22.2787 140.876 22.6696 141.52 22.9363C142.165 23.2031 142.857 23.3403 143.555 23.3403H145.683C147.093 23.3403 148.445 22.7812 149.442 21.786C150.44 20.791 151 19.4413 151 18.0339V-0.000137329H147.81ZM147.81 12.5495V18.0451C147.81 18.6081 147.586 19.148 147.186 19.546C146.787 19.9441 146.246 20.1678 145.683 20.1678H143.555C142.991 20.1678 142.45 19.9441 142.052 19.546C141.652 19.148 141.429 18.6081 141.429 18.0451V11.6813C141.429 11.1184 141.652 10.5785 142.052 10.1804C142.45 9.78236 142.991 9.55879 143.555 9.55879H150.797L147.81 12.5495Z" fill="#1E1C1F" style="fill:#1E1C1F;fill:color(display-p3 0.1176 0.1098 0.1216);fill-opacity:1;"/>
<path d="M20.7355 3.18555V6.36747H17.6092L20.7355 9.31083V23.3497H17.5467V3.18555H20.7355Z" fill="#1E1C1F" style="fill:#1E1C1F;fill:color(display-p3 0.1176 0.1098 0.1216);fill-opacity:1;"/>
<path d="M42.0032 3.18555V6.36747H38.8635L42.0032 9.31083V23.3497H38.8144V3.18555H42.0032Z" fill="#1E1C1F" style="fill:#1E1C1F;fill:color(display-p3 0.1176 0.1098 0.1216);fill-opacity:1;"/>
<path d="M100.491 6.36928H98.3675C96.9575 6.36928 95.605 6.92834 94.6077 7.92348C93.6104 8.9186 93.0502 10.2683 93.0502 11.6756V29.7209H96.2389V23.3571H100.493C101.192 23.3571 101.883 23.2198 102.528 22.9531C103.173 22.6864 103.759 22.2955 104.253 21.8028C104.747 21.31 105.138 20.725 105.404 20.0813C105.672 19.4375 105.809 18.7475 105.808 18.0507V11.6868C105.81 10.989 105.674 10.2977 105.408 9.65246C105.141 9.00726 104.749 8.42087 104.256 7.92689C103.762 7.43291 103.175 7.04106 102.529 6.77377C101.883 6.50648 101.191 6.36903 100.491 6.36928ZM102.618 18.0451C102.618 18.3239 102.563 18.5998 102.456 18.8573C102.35 19.1149 102.193 19.3488 101.995 19.546C101.798 19.743 101.563 19.8994 101.305 20.006C101.047 20.1127 100.771 20.1677 100.491 20.1677H96.237V11.6756C96.237 11.3965 96.292 11.1203 96.399 10.8625C96.5061 10.6047 96.6633 10.3706 96.861 10.1735C97.0597 9.97634 97.2941 9.81999 97.5525 9.71361C97.811 9.60713 98.0878 9.55254 98.3675 9.55312H100.495C101.059 9.55312 101.6 9.77669 101.999 10.1747C102.398 10.5728 102.622 11.1127 102.622 11.6756L102.618 18.0451Z" fill="#1E1C1F" style="fill:#1E1C1F;fill:color(display-p3 0.1176 0.1098 0.1216);fill-opacity:1;"/>
</svg>

<svg xmlns="http://www.w3.org/2000/svg" width="151" height="30" fill="none" viewBox="0 0 151 30"><path fill="#1e1c1f" d="M54.232 20.168v3.182h-4.258a5.33 5.33 0 0 1-3.76-1.553 5.3 5.3 0 0 1-1.558-3.752V3.184h3.189v3.182h4.783v3.182h-7.895l3.12 3.204v5.29a2.12 2.12 0 0 0 1.307 1.963c.258.107.534.162.814.163zM30.841 6.37h-2.129c-1.41 0-2.763.558-3.76 1.553a5.3 5.3 0 0 0-1.557 3.753v6.364a5.3 5.3 0 0 0 1.557 3.751 5.32 5.32 0 0 0 3.76 1.553h4.253v1.063a2.12 2.12 0 0 1-1.31 1.967 2.1 2.1 0 0 1-.814.163h-6.377v3.182h6.377a5.33 5.33 0 0 0 3.76-1.554 5.3 5.3 0 0 0 1.556-3.752V11.676a5.3 5.3 0 0 0-3.281-4.903 5.3 5.3 0 0 0-2.035-.404m2.125 13.798h-4.254a2.13 2.13 0 0 1-2.127-2.121v-6.364c0-.563.224-1.103.623-1.5a2.13 2.13 0 0 1 1.504-.622h2.13a2.13 2.13 0 0 1 1.502.622c.399.398.622.938.622 1.5zM79.22 9.025c0 .704.28 1.38.78 1.877a2.66 2.66 0 0 0 1.88.777h3.189a5.85 5.85 0 0 1 4.135 1.71 5.83 5.83 0 0 1 0 8.254 5.86 5.86 0 0 1-4.135 1.71h-7.974v-3.182h7.976c.705 0 1.381-.28 1.88-.778a2.65 2.65 0 0 0-1.88-4.528h-3.189a5.86 5.86 0 0 1-4.137-1.71 5.832 5.832 0 0 1 1.898-9.52 5.9 5.9 0 0 1 2.24-.444h7.973v3.182H81.88c-.705 0-1.381.28-1.88.777a2.65 2.65 0 0 0-.78 1.875m-5.314-5.839h-3.19v20.166h3.19zM62.739 6.37h-6.39v3.18h6.378a2.13 2.13 0 0 1 1.976 1.31c.108.258.163.535.163.815v1.063H60.61c-1.41 0-2.762.559-3.76 1.554a5.3 5.3 0 0 0 1.726 8.653 5.3 5.3 0 0 0 2.034.404h2.126a5.33 5.33 0 0 0 3.76-1.553 5.3 5.3 0 0 0 1.557-3.752V11.68A5.3 5.3 0 0 0 66.5 7.926a5.32 5.32 0 0 0-3.761-1.557m2.127 11.677a2.13 2.13 0 0 1-2.127 2.12H60.61a2.13 2.13 0 0 1-1.503-.62 2.12 2.12 0 0 1-.624-1.5 2.12 2.12 0 0 1 2.127-2.12h4.255zm51.044-1.064a5.33 5.33 0 0 0 3.761-1.554 5.3 5.3 0 0 0 0-7.505 5.33 5.33 0 0 0-3.761-1.554h-2.129a5.33 5.33 0 0 0-3.759 1.555 5.3 5.3 0 0 0-1.557 3.752v6.364a5.3 5.3 0 0 0 1.558 3.75 5.32 5.32 0 0 0 3.758 1.554h6.378v-3.182h-6.378a2.13 2.13 0 0 1-1.965-1.31 2.1 2.1 0 0 1-.161-.812v-1.064zm-4.254-5.306c0-.563.224-1.103.623-1.501a2.13 2.13 0 0 1 1.504-.622h2.127a2.124 2.124 0 0 1 1.505 3.624 2.13 2.13 0 0 1-1.505.621h-4.254zm19.141 5.306c1.411 0 2.763-.56 3.76-1.554a5.3 5.3 0 0 0 0-7.504 5.32 5.32 0 0 0-3.76-1.555h-2.129a5.33 5.33 0 0 0-3.759 1.555 5.3 5.3 0 0 0-1.557 3.752v6.364a5.3 5.3 0 0 0 1.558 3.75 5.32 5.32 0 0 0 3.758 1.554h6.377v-3.182h-6.377a2.13 2.13 0 0 1-1.965-1.31 2.1 2.1 0 0 1-.161-.812v-1.064zm-4.253-5.306a2.126 2.126 0 0 1 2.126-2.122h2.127a2.13 2.13 0 0 1 2.128 2.122 2.12 2.12 0 0 1-1.314 1.96 2.1 2.1 0 0 1-.814.162h-4.253zM8.508 3.186H0v20.166h8.508c1.692 0 3.314-.67 4.51-1.864a6.36 6.36 0 0 0 1.868-4.5V9.553a6.35 6.35 0 0 0-1.867-4.502 6.38 6.38 0 0 0-4.51-1.865m3.19 13.8a3.18 3.18 0 0 1-.935 2.25 3.2 3.2 0 0 1-2.255.932H3.191V9.513L0 6.37h8.508c.846 0 1.657.336 2.255.932s.934 1.406.934 2.25zM147.81 0v6.364h-4.255a5.33 5.33 0 0 0-3.759 1.554 5.3 5.3 0 0 0-1.557 3.752v6.364a5.3 5.3 0 0 0 1.557 3.752 5.32 5.32 0 0 0 3.759 1.554h2.128a5.32 5.32 0 0 0 3.759-1.554A5.3 5.3 0 0 0 151 18.034V0zm0 12.55v5.495a2.13 2.13 0 0 1-2.127 2.123h-2.128a2.125 2.125 0 0 1-2.126-2.123v-6.364a2.126 2.126 0 0 1 2.126-2.123h7.242zM20.736 3.186v3.181h-3.127l3.126 2.944V23.35h-3.188V3.186zm21.267 0v3.181h-3.14l3.14 2.944V23.35h-3.189V3.186zm58.488 3.184h-2.123c-1.41 0-2.763.558-3.76 1.553a5.3 5.3 0 0 0-1.558 3.753V29.72h3.189v-6.364h4.254a5.32 5.32 0 0 0 3.76-1.554 5.3 5.3 0 0 0 1.151-1.722 5.3 5.3 0 0 0 .404-2.03v-6.364a5.3 5.3 0 0 0-3.279-4.913 5.3 5.3 0 0 0-2.038-.405m2.127 11.675a2.12 2.12 0 0 1-.623 1.501 2.12 2.12 0 0 1-1.504.622h-4.254v-8.492a2.12 2.12 0 0 1 2.13-2.123h2.128a2.13 2.13 0 0 1 1.504.622c.399.398.623.938.623 1.5z" style="fill:#1e1c1f;fill:color(display-p3 .1176 .1098 .1216);fill-opacity:1"/></svg>
